X:1
T: Haud the Lass till I come at her
C:
R:Reel
Q: 232
K:D
M:4/4
L:1/8
|:Ae eg fd ec|Ae eB dG dB|Ae eg fd ef|ge dg BG dB|
Ae eg fd ec|Ae eB dG dB|Ae eg fd ef|ge dg BG dB|
A3/2g1/2 f1/2g1/2a fd ec|A3/2g1/2 f1/2g1/2a GB dB|A3/2g1/2 f1/2g1/2a fd ef|ge dg BG dB|
A3/2g1/2 f1/2g1/2a fd ec|A3/2g1/2 f1/2g1/2a GB dB|A3/2g1/2 f1/2g1/2a fd ef|ge dg BG dB:|
